src/app/layout/logo/logo.component.svg

<svg
  class="logo"
  viewBox="0 0 340 93"
  preserveAspectRatio="xMidYMid meet"
  color-interpolation-filters="sRGB"
  xmlns="http://www.w3.org/2000/svg">
  <g
    class="logo--fill"
        transform="matrix(1.8794887,0,0,1.8794887,2.1467579,1.0093981)">
    <svg
      x="0"
      y="0"
      width="37.046955"
      height="40.800163"
      filtersec="colorsb5828770157">
      <svg
        viewBox="-0.61019176 -0.005000852 67.610191 74.459999"
        width="100%"
        height="100%">
        <path
          d="M 37.23,74.45 A 37.23,37.23 0 1 1 37.23,0 L 67,59.56 A 37.19,37.19 0 0 1 37.23,74.45 Z"
          fill="#bce2e3"
          opacity="0.8"/>
        <path
          d="m 37.23,0 a 37.23,37.23 0 1 0 0,74.45 L 67,14.89 A 37.19,37.19 0 0 0 37.23,0 Z"
          fill="#58c1c0"
          opacity="0.8"/>
      </svg>
    </svg>
    <g
      transform="translate(41,2.2010107)">
      <g
        class="logo--fill"
      >
        <path
          d="M 11.94,-25.63 V 0 H 3.1 v -25.63 z m -9.07,-6.38 v 0 q 0,-1.99 1.11,-2.96 1.11,-0.98 3.58,-0.98 v 0 q 2.46,0 3.59,1 1.13,0.99 1.13,2.94 v 0 q 0,3.89 -4.72,3.89 v 0 q -4.69,0 -4.69,-3.89 z"
          transform="translate(-2.8729421,35.945708)"
        />
      </g>
    </g>
    <g
      transform="translate(54,2.2010107)"
    >
      <g
        class="logo--fill"
      >
        <path
          d="m 28.07,0 h -8.84 v -13.98 q 0,-2.56 -0.74,-3.86 -0.73,-1.3 -2.36,-1.3 v 0 q -2.24,0 -3.24,1.79 -0.99,1.79 -0.99,6.13 v 0 V 0 H 3.05 v -25.63 h 6.68 l 1.11,3.17 h 0.52 q 1.13,-1.81 3.13,-2.72 2,-0.9 4.6,-0.9 v 0 q 4.26,0 6.62,2.46 2.36,2.47 2.36,6.95 v 0 z"
          transform="translate(-3.0539148,35.945708)"
        />
      </g>
    </g>
    <g
      transform="translate(83,2.2010107)"
    >
      <g
        class="logo--fill"
      >
        <path
          d="m 15.43,0.45 v 0 q -6.4,0 -9.94,-3.4 -3.54,-3.41 -3.54,-9.7 v 0 q 0,-6.49 3.28,-9.96 3.28,-3.47 9.36,-3.47 v 0 q 5.79,0 8.95,3.02 3.15,3.02 3.15,8.7 v 0 3.93 H 10.88 q 0.09,2.15 1.57,3.37 1.48,1.22 4.04,1.22 v 0 q 2.33,0 4.29,-0.44 1.95,-0.44 4.24,-1.5 v 0 6.35 q -2.08,1.07 -4.3,1.48 -2.22,0.4 -5.29,0.4 z m -0.52,-20.52 v 0 q -1.56,0 -2.62,0.99 -1.05,0.98 -1.23,3.09 v 0 h 7.6 q -0.04,-1.86 -1.05,-2.97 -1.01,-1.11 -2.7,-1.11 z"
          transform="translate(-1.9454568,35.945708)"
        />
      </g>
    </g>
    <g
      transform="translate(111,2.2010107)">
      <g
        class="logo--fill"
      >
        <path
          d="m 43.37,0 h -8.85 v -13.93 q 0,-2.61 -0.71,-3.91 -0.71,-1.3 -2.25,-1.3 v 0 q -2.04,0 -2.99,1.74 -0.95,1.75 -0.95,5.46 v 0 V 0 h -8.87 v -13.93 q 0,-2.61 -0.68,-3.91 -0.67,-1.3 -2.19,-1.3 v 0 q -2.08,0 -3.03,1.86 -0.95,1.85 -0.95,6.06 v 0 V 0 H 3.05 v -25.63 h 6.68 l 1.11,3.17 h 0.52 q 1.01,-1.77 2.95,-2.7 1.93,-0.92 4.4,-0.92 v 0 q 5.54,0 7.78,3.37 v 0 h 0.7 q 1.09,-1.59 3.02,-2.48 1.94,-0.89 4.27,-0.89 v 0 q 4.54,0 6.71,2.33 2.18,2.33 2.18,7.08 v 0 z"
          transform="translate(-3.0539148,35.945708)"
        />
      </g>
    </g>
    <g
      transform="translate(155,2.2010107)"
    >
      <g
        class="logo--fill"
      >
        <path
          d="m 25.9,0 h -6.13 l -1.7,-3.39 h -0.18 q -1.78,2.21 -3.64,3.03 -1.85,0.81 -4.79,0.81 v 0 q -3.62,0 -5.7,-2.17 -2.09,-2.17 -2.09,-6.11 v 0 q 0,-4.09 2.85,-6.09 2.85,-2.01 8.26,-2.25 v 0 l 4.28,-0.14 v -0.36 q 0,-3.17 -3.13,-3.17 v 0 q -2.8,0 -7.12,1.9 v 0 l -2.56,-5.84 q 4.48,-2.3 11.31,-2.3 v 0 q 4.94,0 7.64,2.44 2.7,2.44 2.7,6.83 v 0 z M 13.21,-5.79 v 0 q 1.61,0 2.75,-1.02 1.14,-1.02 1.14,-2.65 v 0 -1.99 l -2.03,0.09 q -4.37,0.16 -4.37,3.22 v 0 q 0,2.35 2.51,2.35 z"
          transform="translate(-1.6739977,35.945708)"
        />
      </g>
    </g>
  </g>
  <g
    class="logo--fill"
    transform="matrix(1.8794887,0,0,1.8794887,12.696334,77.095022)"
  >
    <rect
      x="0"
      height="1"
      y="3.5800004"
      width="52.047997"
    />
    <rect
      height="1"
      y="3.5800004"
      width="52.047997"
      x="117.178"
    />
    <g
      transform="translate(55.047998)"
    >
      <g
      >
        <path
          d="m 0.62,-3.94 c 0,0.64 0.09,1.22 0.26,1.73 0.17,0.5 0.41,0.93 0.72,1.28 0.31,0.35 0.67,0.61 1.09,0.8 0.42,0.18 0.88,0.27 1.38,0.27 0.5,0 0.95,-0.1 1.34,-0.3 C 5.8,-0.36 6.16,-0.64 6.47,-1 L 5.9,-1.61 c -0.25,0.28 -0.52,0.5 -0.81,0.65 -0.28,0.15 -0.61,0.23 -1,0.23 -0.37,0 -0.71,-0.08 -1.01,-0.23 C 2.78,-1.11 2.52,-1.33 2.32,-1.61 2.11,-1.89 1.95,-2.23 1.83,-2.62 1.71,-3.02 1.66,-3.46 1.66,-3.96 c 0,-0.49 0.06,-0.93 0.18,-1.32 0.12,-0.39 0.28,-0.73 0.5,-1 0.22,-0.28 0.48,-0.49 0.78,-0.64 0.3,-0.15 0.64,-0.22 1.02,-0.22 0.34,0 0.63,0.07 0.88,0.2 0.25,0.13 0.48,0.31 0.69,0.53 L 6.28,-7.04 C 6.04,-7.3 5.75,-7.53 5.39,-7.72 c -0.36,-0.2 -0.78,-0.3 -1.26,-0.3 -0.51,0 -0.97,0.1 -1.4,0.29 -0.43,0.18 -0.8,0.45 -1.11,0.81 -0.31,0.35 -0.56,0.78 -0.73,1.28 -0.18,0.5 -0.27,1.07 -0.27,1.7 z M 11.28,-3.2 H 8.92 L 9.29,-4.4 C 9.43,-4.84 9.57,-5.28 9.7,-5.72 9.82,-6.15 9.95,-6.6 10.07,-7.06 h 0.05 c 0.12,0.46 0.25,0.91 0.38,1.34 0.13,0.44 0.26,0.88 0.41,1.32 z m 0.25,0.8 0.75,2.4 h 1.06 L 10.68,-7.87 H 9.55 L 6.89,0 h 1.02 l 0.75,-2.4 z m 4.08,-4.63 V 0 h 1.01 V -7.03 H 19 v -0.84 h -5.76 v 0.84 z m 7.67,3.83 h -2.36 l 0.37,-1.2 c 0.14,-0.44 0.28,-0.88 0.41,-1.32 0.12,-0.43 0.25,-0.88 0.37,-1.34 h 0.05 c 0.12,0.46 0.25,0.91 0.38,1.34 0.13,0.44 0.26,0.88 0.41,1.32 z m 0.25,0.8 0.75,2.4 h 1.06 L 22.68,-7.87 H 21.55 L 18.89,0 h 1.02 l 0.75,-2.4 z m 2.93,-5.47 V 0 h 4.44 v -0.85 h -3.44 v -7.02 z m 8.42,8.01 c 0.5,0 0.95,-0.09 1.37,-0.28 0.41,-0.2 0.76,-0.47 1.06,-0.83 0.3,-0.35 0.54,-0.78 0.7,-1.29 0.16,-0.51 0.25,-1.08 0.25,-1.71 0,-0.63 -0.09,-1.19 -0.25,-1.69 -0.16,-0.5 -0.4,-0.92 -0.7,-1.27 -0.3,-0.35 -0.65,-0.62 -1.06,-0.8 -0.42,-0.19 -0.87,-0.29 -1.37,-0.29 -0.49,0 -0.95,0.1 -1.36,0.28 -0.41,0.18 -0.76,0.45 -1.06,0.8 -0.3,0.35 -0.53,0.77 -0.69,1.27 -0.16,0.5 -0.25,1.07 -0.25,1.7 0,0.63 0.09,1.2 0.25,1.71 0.16,0.51 0.39,0.94 0.69,1.29 0.3,0.36 0.65,0.63 1.06,0.83 0.41,0.19 0.87,0.28 1.36,0.28 z m 0,-0.87 c -0.35,0 -0.67,-0.08 -0.95,-0.23 -0.28,-0.15 -0.53,-0.37 -0.73,-0.65 -0.21,-0.29 -0.36,-0.63 -0.48,-1.02 -0.11,-0.4 -0.16,-0.85 -0.16,-1.34 0,-0.49 0.05,-0.93 0.16,-1.32 0.12,-0.39 0.27,-0.73 0.48,-1 0.2,-0.27 0.45,-0.48 0.73,-0.63 0.28,-0.15 0.6,-0.22 0.95,-0.22 0.36,0 0.67,0.07 0.96,0.22 0.28,0.15 0.53,0.36 0.73,0.63 0.2,0.27 0.36,0.61 0.47,1 0.12,0.39 0.17,0.83 0.17,1.32 0,0.49 -0.05,0.94 -0.17,1.34 -0.11,0.39 -0.27,0.73 -0.47,1.02 -0.2,0.28 -0.45,0.5 -0.73,0.65 -0.29,0.15 -0.6,0.23 -0.96,0.23 z m 4.61,-3.21 c 0,0.64 0.09,1.22 0.27,1.73 0.17,0.5 0.42,0.93 0.73,1.28 0.31,0.35 0.68,0.61 1.11,0.8 0.44,0.18 0.91,0.27 1.43,0.27 0.53,0 1,-0.08 1.42,-0.25 0.42,-0.18 0.76,-0.39 1.02,-0.66 v -3.31 h -2.58 v 0.83 h 1.67 v 2.05 c -0.16,0.14 -0.37,0.26 -0.62,0.34 -0.25,0.09 -0.52,0.13 -0.8,0.13 -0.42,0 -0.8,-0.08 -1.12,-0.23 -0.33,-0.15 -0.6,-0.37 -0.82,-0.65 -0.22,-0.28 -0.39,-0.62 -0.5,-1.01 -0.12,-0.4 -0.18,-0.84 -0.18,-1.34 0,-0.49 0.07,-0.93 0.19,-1.32 0.12,-0.39 0.3,-0.73 0.52,-1 0.23,-0.28 0.5,-0.49 0.82,-0.64 0.32,-0.15 0.68,-0.22 1.08,-0.22 0.4,0 0.73,0.07 0.99,0.21 0.26,0.14 0.49,0.31 0.69,0.52 l 0.56,-0.63 c -0.23,-0.24 -0.53,-0.47 -0.89,-0.67 -0.37,-0.2 -0.82,-0.31 -1.36,-0.31 -0.53,0 -1.02,0.1 -1.46,0.29 -0.44,0.18 -0.82,0.45 -1.14,0.81 -0.33,0.35 -0.58,0.78 -0.76,1.28 -0.18,0.5 -0.27,1.07 -0.27,1.7 z m 7.83,-3.93 v 4.62 c 0,0.63 0.07,1.16 0.21,1.59 0.15,0.44 0.34,0.79 0.6,1.05 0.25,0.27 0.55,0.46 0.9,0.58 0.34,0.12 0.72,0.17 1.12,0.17 0.4,0 0.77,-0.05 1.11,-0.17 0.35,-0.12 0.65,-0.31 0.9,-0.58 0.25,-0.26 0.45,-0.61 0.59,-1.05 0.15,-0.43 0.22,-0.96 0.22,-1.59 v -4.62 h -0.96 v 4.64 c 0,0.47 -0.05,0.87 -0.15,1.19 -0.09,0.32 -0.22,0.58 -0.39,0.77 -0.17,0.19 -0.37,0.33 -0.59,0.41 -0.22,0.09 -0.47,0.13 -0.73,0.13 -0.26,0 -0.5,-0.04 -0.72,-0.13 -0.23,-0.08 -0.42,-0.22 -0.58,-0.41 -0.17,-0.19 -0.3,-0.45 -0.39,-0.77 -0.1,-0.32 -0.15,-0.72 -0.15,-1.19 v -4.64 z m 7.77,0 V 0 h 4.66 v -0.85 h -3.66 v -2.86 h 2.99 v -0.85 h -2.99 v -2.47 h 3.54 v -0.84 z"
          transform="translate(-0.624,8.016)"
        />
      </g>
    </g>
  </g>
</svg>

<svg
  viewBox="0.1967 0 172.0001 57.6196"
  width="172.0001"
  height="57.6196"
  xmlns="http://www.w3.org/2000/svg"
>
  <g
    fill="#fff"
    style="transform-origin: -0.19715px 0px"
    transform="matrix(0.997718095779, 0, 0, 1, 0.197149973495, 0)"
  >
    <g class="tp-name" transform="matrix(1,0,0,1,0,0)" opacity="1">
      <g transform="translate(0, 0)">
        <g>
          <g class="imagesvg">
            <g>
              <rect
                fill="#fff"
                fill-opacity="0"
                stroke-width="2"
                x="0"
                y="0"
                width="37.43173634489149"
                height="43.46361713022397"
                class="image-rect"
              />
              <svg
                x="0"
                y="0"
                width="37.43173634489149"
                height="43.46361713022397"
                filtersec="colorsb4792216894"
              >
                <svg
                  xmlns="http://www.w3.org/2000/svg"
                  viewBox="0 -0.0028127124533057213 60.470001220703125 70.21421813964844"
                >
                  <g>
                    <g>
                      <path
                        d="M6.69 35.11c0-10.48 4.19-18.28 10.66-23.09a27.1 27.1 0 0 0-6.24-3.42C4.23 14.68 0 23.75 0 35.11s4.36 20.37 11.26 26.45a27.08 27.08 0 0 0 6.08-3.36C10.88 53.39 6.69 45.59 6.69 35.11z"
                        fill="#fd576b"
                      />
                      <path
                        d="M23.43 8.66a32 32 0 0 1 12-2.25A29.18 29.18 0 0 1 56 14.63l4.46-4.32A35.8 35.8 0 0 0 35.39 0a38.19 38.19 0 0 0-18.17 4.35 33.14 33.14 0 0 1 6.21 4.31z"
                        fill="#d65fc2"
                      />
                      <path
                        d="M35.39 63.81a32.09 32.09 0 0 1-11.81-2.19 32.35 32.35 0 0 1-6.11 4.24 37.75 37.75 0 0 0 17.92 4.35 35.2 35.2 0 0 0 25.08-10.3l-4.6-4.6a29.14 29.14 0 0 1-20.48 8.5z"
                        fill="#ff9845"
                      />
                    </g>
                  </g>
                </svg>
              </svg>
            </g>
          </g>
        </g>
      </g>
      <g transform="translate(41, 3.6205100828185586)">
        <g fill="#fff" transform="scale(1)">
          <path
            d="M5.26-25.09L5.26 0L2.78 0L2.78-25.09ZM2.07-33.14C2.07-30.51 6.07-30.51 6.07-33.14C6.07-35.77 2.07-35.77 2.07-33.14Z"
            transform="translate(-2.074198988195616, 35.817875210792586)"
          />
        </g>
      </g>
      <g transform="translate(49, 3.6205100828185586)">
        <g fill="#fff" transform="scale(1)">
          <path
            d="M2.78-24.99L2.78 0L5.26 0L5.26-13.91C5.26-19.07 8.85-22.97 14.01-23.02C19.43-23.07 22.92-20.03 22.92-14.37L22.92 0L25.40 0L25.40-14.42C25.40-21.35 20.79-25.45 14.11-25.45C10.62-25.40 7.13-23.98 5.21-20.54L5.21-24.99Z"
            transform="translate(-2.7824620573355823, 35.817875210792586)"
          />
        </g>
      </g>
      <g transform="translate(75, 3.6205100828185586)">
        <g fill="#fff" transform="scale(1)">
          <path
            d="M14.06 0.35C18.06 0.35 22.41-1.26 24.84-4.45L23.07-5.87C21.20-3.39 17.35-2.07 14.06-2.07C8.90-2.07 4.40-5.46 3.90-11.33L26.41-11.33C27.37-21.10 21.10-25.40 14.06-25.40C7.03-25.40 1.37-19.98 1.37-12.50C1.37-4.55 7.03 0.35 14.06 0.35ZM3.90-13.51C4.45-19.63 8.90-23.12 14.06-23.12C20.08-23.12 24.13-19.68 24.18-13.51Z"
            transform="translate(-1.3659359190556495, 35.817875210792586)"
          />
        </g>
      </g>
      <g transform="translate(104, 3.6205100828185586)">
        <g fill="#fff" transform="scale(1)">
          <path
            d="M42.29 0L42.29-14.97C42.29-21.20 37.94-25.50 31.82-25.50C27.98-25.50 24.08-23.42 22.56-19.33C21.10-23.78 17.10-25.50 13.31-25.50C10.07-25.50 6.88-24.13 5.16-20.84L5.11-24.99L2.78-24.99L2.78 0L5.26 0L5.26-14.82C5.26-19.63 8.50-23.12 13.25-23.12C18.01-23.12 21.30-19.63 21.30-14.82L21.30 0L23.78 0L23.78-14.82C23.78-19.63 27.07-23.17 31.82-23.17C36.58-23.17 39.81-19.78 39.81-14.97L39.81 0Z"
            transform="translate(-2.7824620573355827, 35.817875210792586)"
          />
        </g>
      </g>
      <g transform="translate(147, 3.6205100828185586)">
        <g fill="#fff" transform="scale(1)">
          <path
            d="M24.33-24.99L24.33-19.53C22.26-23.42 18.16-25.30 14.11-25.30C7.13-25.30 1.42-20.13 1.42-12.50C1.42-4.86 7.13 0.40 14.11 0.40C18.16 0.40 21.91-1.42 24.33-5.31L24.33 0L26.81 0C26.81-8.35 26.81-16.64 26.81-24.99ZM14.11-22.92C28.03-22.92 28.03-2.02 14.11-2.02C8.45-2.02 3.90-6.22 3.90-12.50C3.90-18.77 8.45-22.92 14.11-22.92Z"
            transform="translate(-1.4165261382799328, 35.817875210792586)"
          />
        </g>
      </g>
    </g>
    <g
      fill="#fff"
      transform="matrix(1,0,0,1,5,49.46361541748047)"
      opacity="1"
    >
      <rect x="0" height="1" y="3.580000400543213" width="48.63173866271973" />
      <rect
        height="1"
        y="3.580000400543213"
        width="48.63173866271973"
        x="113.76173973083496"
      />
      <g transform="translate(51.63173866271973,0)">
        <g transform="scale(1)">
          <path
            d="M0.62-3.94C0.62-3.30 0.71-2.72 0.88-2.21C1.05-1.71 1.29-1.28 1.60-0.93C1.91-0.58 2.27-0.32 2.69-0.13C3.11 0.05 3.57 0.14 4.07 0.14C4.57 0.14 5.02 0.04 5.41-0.16C5.80-0.36 6.16-0.64 6.47-1.00L5.90-1.61C5.65-1.33 5.38-1.11 5.09-0.96C4.81-0.81 4.48-0.73 4.09-0.73C3.72-0.73 3.38-0.81 3.08-0.96C2.78-1.11 2.52-1.33 2.32-1.61C2.11-1.89 1.95-2.23 1.83-2.62C1.71-3.02 1.66-3.46 1.66-3.96C1.66-4.45 1.72-4.89 1.84-5.28C1.96-5.67 2.12-6.01 2.34-6.28C2.56-6.56 2.82-6.77 3.12-6.92C3.42-7.07 3.76-7.14 4.14-7.14C4.48-7.14 4.77-7.07 5.02-6.94C5.27-6.81 5.50-6.63 5.71-6.41L6.28-7.04C6.04-7.30 5.75-7.53 5.39-7.72C5.03-7.92 4.61-8.02 4.13-8.02C3.62-8.02 3.16-7.92 2.73-7.73C2.30-7.55 1.93-7.28 1.62-6.92C1.31-6.57 1.06-6.14 0.89-5.64C0.71-5.14 0.62-4.57 0.62-3.94ZM11.28-3.20L8.92-3.20L9.29-4.40C9.43-4.84 9.57-5.28 9.70-5.72C9.82-6.15 9.95-6.60 10.07-7.06L10.12-7.06C10.24-6.60 10.37-6.15 10.50-5.72C10.63-5.28 10.76-4.84 10.91-4.40ZM11.53-2.40L12.28 0L13.34 0L10.68-7.87L9.55-7.87L6.89 0L7.91 0L8.66-2.40ZM15.61-7.03L15.61 0L16.62 0L16.62-7.03L19.00-7.03L19.00-7.87L13.24-7.87L13.24-7.03ZM23.28-3.20L20.92-3.20L21.29-4.40C21.43-4.84 21.57-5.28 21.70-5.72C21.82-6.15 21.95-6.60 22.07-7.06L22.12-7.06C22.24-6.60 22.37-6.15 22.50-5.72C22.63-5.28 22.76-4.84 22.91-4.40ZM23.53-2.40L24.28 0L25.34 0L22.68-7.87L21.55-7.87L18.89 0L19.91 0L20.66-2.40ZM26.46-7.87L26.46 0L30.90 0L30.90-0.85L27.46-0.85L27.46-7.87ZM34.88 0.14C35.38 0.14 35.83 0.05 36.25-0.14C36.66-0.34 37.01-0.61 37.31-0.97C37.61-1.32 37.85-1.75 38.01-2.26C38.17-2.77 38.26-3.34 38.26-3.97C38.26-4.60 38.17-5.16 38.01-5.66C37.85-6.16 37.61-6.58 37.31-6.93C37.01-7.28 36.66-7.55 36.25-7.73C35.83-7.92 35.38-8.02 34.88-8.02C34.39-8.02 33.93-7.92 33.52-7.74C33.11-7.56 32.76-7.29 32.46-6.94C32.16-6.59 31.93-6.17 31.77-5.67C31.61-5.17 31.52-4.60 31.52-3.97C31.52-3.34 31.61-2.77 31.77-2.26C31.93-1.75 32.16-1.32 32.46-0.97C32.76-0.61 33.11-0.34 33.52-0.14C33.93 0.05 34.39 0.14 34.88 0.14ZM34.88-0.73C34.53-0.73 34.21-0.81 33.93-0.96C33.65-1.11 33.40-1.33 33.20-1.61C32.99-1.90 32.84-2.24 32.72-2.63C32.61-3.03 32.56-3.48 32.56-3.97C32.56-4.46 32.61-4.90 32.72-5.29C32.84-5.68 32.99-6.02 33.20-6.29C33.40-6.56 33.65-6.77 33.93-6.92C34.21-7.07 34.53-7.14 34.88-7.14C35.24-7.14 35.55-7.07 35.84-6.92C36.12-6.77 36.37-6.56 36.57-6.29C36.77-6.02 36.93-5.68 37.04-5.29C37.16-4.90 37.21-4.46 37.21-3.97C37.21-3.48 37.16-3.03 37.04-2.63C36.93-2.24 36.77-1.90 36.57-1.61C36.37-1.33 36.12-1.11 35.84-0.96C35.55-0.81 35.24-0.73 34.88-0.73ZM39.49-3.94C39.49-3.30 39.58-2.72 39.76-2.21C39.93-1.71 40.18-1.28 40.49-0.93C40.80-0.58 41.17-0.32 41.60-0.13C42.04 0.05 42.51 0.14 43.03 0.14C43.56 0.14 44.03 0.06 44.45-0.11C44.87-0.29 45.21-0.50 45.47-0.77L45.47-4.08L42.89-4.08L42.89-3.25L44.56-3.25L44.56-1.20C44.40-1.06 44.19-0.94 43.94-0.86C43.69-0.77 43.42-0.73 43.14-0.73C42.72-0.73 42.34-0.81 42.02-0.96C41.69-1.11 41.42-1.33 41.20-1.61C40.98-1.89 40.81-2.23 40.70-2.62C40.58-3.02 40.52-3.46 40.52-3.96C40.52-4.45 40.59-4.89 40.71-5.28C40.83-5.67 41.01-6.01 41.23-6.28C41.46-6.56 41.73-6.77 42.05-6.92C42.37-7.07 42.73-7.14 43.13-7.14C43.53-7.14 43.86-7.07 44.12-6.93C44.38-6.79 44.61-6.62 44.81-6.41L45.37-7.04C45.14-7.28 44.84-7.51 44.48-7.71C44.11-7.91 43.66-8.02 43.12-8.02C42.59-8.02 42.10-7.92 41.66-7.73C41.22-7.55 40.84-7.28 40.52-6.92C40.19-6.57 39.94-6.14 39.76-5.64C39.58-5.14 39.49-4.57 39.49-3.94ZM47.32-7.87L47.32-3.25C47.32-2.62 47.39-2.09 47.53-1.66C47.68-1.22 47.87-0.87 48.13-0.61C48.38-0.34 48.68-0.15 49.03-0.03C49.37 0.09 49.75 0.14 50.15 0.14C50.55 0.14 50.92 0.09 51.26-0.03C51.61-0.15 51.91-0.34 52.16-0.61C52.41-0.87 52.61-1.22 52.75-1.66C52.90-2.09 52.97-2.62 52.97-3.25L52.97-7.87L52.01-7.87L52.01-3.23C52.01-2.76 51.96-2.36 51.86-2.04C51.77-1.72 51.64-1.46 51.47-1.27C51.30-1.08 51.10-0.94 50.88-0.86C50.66-0.77 50.41-0.73 50.15-0.73C49.89-0.73 49.65-0.77 49.43-0.86C49.20-0.94 49.01-1.08 48.85-1.27C48.68-1.46 48.55-1.72 48.46-2.04C48.36-2.36 48.31-2.76 48.31-3.23L48.31-7.87ZM55.09-7.87L55.09 0L59.75 0L59.75-0.85L56.09-0.85L56.09-3.71L59.08-3.71L59.08-4.56L56.09-4.56L56.09-7.03L59.63-7.03L59.63-7.87Z"
            transform="translate(-0.624, 8.016)"
          />
        </g>
      </g>
    </g>
  </g>
</svg>
